X:1
T:Piano Sonata No. 14 in C♯ minor (“Moonlight”)
T:Adagio sostenuto
T:Piano Sonata No. 14 – “Moonlight” – Op. 27, No. 2
T:Movement I
T:Ludwig van Beethoven
T:OpenScore (CC0)
T:OpenScore (CC0)
T:OpenScore (CC0)
T:OpenScore (CC0)
C:Ludwig van Beethoven
Z:OpenScore (CC0)
%%score { ( 1 3 ) | ( 2 4 ) }
L:1/8
Q:1/4=60
M:2/2
K:E
V:1 treble nm="Piano" snm="Pno."
V:3 treble 
V:2 bass 
V:4 bass 
V:1
"^Adagio sostenuto""^Si deve suonare tutto questo pezzo delicatissimamente e senza sordini."!pp! (3(G,CE (3G,CE (3G,CE (3G,CE | %1
 (3G,)CE (3G,CE (3G,CE (3G,CE | (3A,CE (3A,CE (3A,=DF (3A,DF | (3G,^B,F (3G,CE (3G,C^D (3F,B,D | %4
 z4 z2!pp! G>G | G6 G>G | (G4 A4 | G4 F2 B2 | E2) z2 z4 | z4 z2 =G>G | =G6 G>G | (=G6 ^F2) | %12
 (F4 =G2 E2 | F4) (F4 | B,2) z2 z2 (B2 |!<(! =c6!<)! ^A2 |!pp! B6) (B2 |!<(! =c6!<)! ^A2 | %18
!pp! B4) (B4 | B4 =A4) | (=G4 F4) | C4 C2 (C2 |[I:staff +1] F,2)[I:staff -1] z2 z2 c>c | c6 c>c | %24
"_cresc." (c4 ^B2 c2 | d6) (d2 | e4!mf!"_dim." d2 c2 | %27
!p!!<(! (3^B)^B,D (G2!<)!!mf!!>(! =A2 F2)!>)! |!p! (3z!<(! ^B,D G,2!<)!!mf!!>(! A,2 F,2!>)! | %29
!p!!<(![I:staff +1] (3E,[I:staff -1]EG (c2!<)!!mf!!>(! e2 c2)!>)! | %30
!p!!<(! (3z[I:staff +1] E,G, (C2!<)!!mf!!>(! E2 C2)!>)! | %31
!mp! (3(D,A,F,[I:staff -1] (3^B,A,D (3B,FD (3AF^B) | %32
[I:staff +1] (3(E,CG,[I:staff -1] (3ECG (3EcG (3ecG) | (3(C^^FE (3^AFc (3Aec (3^^fe^a) | %34
 (3(^F^B=A (3dB^f (3d=af (3^bad' | (3^bfa (3df^B (3dAB (3FAD | %36
 (3F^B,D[K:bass] (3A,^B,F, (3A,D,F, (3C,F,A, | (3^B,,)F,G, (3A,G,F, (3D,F,A, (3C,F,A, | %38
 (3^B,,F,G, (3A,G,F, (3=D,F,A, (3C,F,A, |"_dim." (3^B,,F,G, (3A,G,F, (3C,E,C (3C,E,C | %40
 (3D,A,C (3D,A,C (3D,G,^B, (3D,F,B, |!pp! x2[K:treble] x2 x2!pp! G>G | G6 G>G | (G4 A4 | G4 F2 B2 | %45
 E2) z2 z2 B>B | B6 B>B |"_cresc." (B4 ^B2 c2 |!p! d4 e4 | =d4 ^B4 | c6) (c2 |!<(! =d6!<)! ^B2 | %52
!p! c6) (c2 |!<(! =d6!<)! ^B2 |!pp! c4) (c4 | =B6) (B2 | A2 A2 G2 G2 |"_cresc." (F4) G2 A2 | %58
!p! G4) (G4 |!pp! C2) x2 x4 | (3G,DF (3G,DF (3G,DF (3G,DF |!<(! (3(G,EC (3GEc (3Gec (3gec!<)! | %62
!mp!!>(! x2 x2[K:bass] x2 ^B,2!>)! |!pp!!<(! (3[E,C])[K:treble](EC (3GEc (3Gec (3gec!<)! | %64
!mp!!>(! x2 x2[K:bass] x2 ^B,2!>)! |!p!"_dim." (3[E,C])(G,C (3ECG,) (3z (E,G, (3CG,E,) | %66
 (3z C,E, (3G,E,C, z4 |!pp! z4 [E,G,C]4 | !fermata![E,G,C]8 |] %69
V:2
 [C,,C,]8 |"^simile" [B,,,B,,]8 | ([A,,,A,,]4 [F,,,F,,]4 | [G,,,G,,]4) ([G,,,G,,]4 | [C,,G,,C,]8) | %5
 [^B,,,G,,^B,,]8 | ([C,,C,]4 [F,,,F,,]4 | [B,,,B,,]4 [B,,,B,,]4 | [E,,E,]8) | [E,,E,]8 | %10
 [=D,,=D,]8 | ([=C,,=C,]2 [B,,,B,,]2 [^A,,,^A,,]4) | ([B,,,B,,]4 E,,2 =G,,2 | F,,4) ([F,,,F,,]4 | %14
 [B,,,B,,]8-) | ([B,,,B,,]2 [E,,E,]2 [=G,,=G,]2 [E,,E,]2) | [B,,,B,,]8- | %17
 ([B,,,B,,]2 [E,,E,]2 [=G,,=G,]2 [E,,E,]2 | [B,,,B,,]4) ([^G,,,^G,,]4 | [^E,,,^E,,]4 [F,,,F,,]4) | %20
 ([B,,,B,,]4 [^B,,,^B,,]4) | C,,4 C,,4 | [F,,,C,,F,,]8 | [^E,,C,^E,]8 | %24
 ([F,,F,]4 [D,,D,]2 [C,,C,]2 | [^B,,,G,,^B,,]6) ([B,,,G,,B,,]2 | %26
 [C,,G,,C,]4) ([F,,,F,,]2 [^^F,,,^^F,,]2 | [G,,,G,,]8) | [G,,,G,,]8 | [G,,,G,,]8 | [G,,,G,,]8 | %31
 [G,,,G,,]8 | [G,,,G,,]8 | [G,,,G,,]8 | [G,,,G,,]8- | [G,,,G,,]8- | [G,,,G,,]8 | [G,,,G,,]8 | %38
 [G,,,G,,]8 | ([G,,,G,,]4 [A,,,A,,]4 | [F,,,F,,]4 [G,,,G,,]4) | [C,,G,,C,]8 | [^B,,,G,,^B,,]8 | %43
 ([C,,C,]4 [F,,,F,,]4 | [B,,,B,,]4 [B,,,B,,]4 | [E,,E,]8) | [D,,D,]8 | %47
 ([E,,E,]4 [D,,D,]2 [C,,C,]2 | [^B,,,G,,^B,,]4 [C,,G,,C,]4 | [F,,,F,,]4 [G,,,G,,]4 | [C,,C,]8-) | %51
 ([C,,C,]2 [F,,F,]2 [A,,A,]2 [F,,F,]2 | [C,,C,]8-) | ([C,,C,]2 [F,,F,]2 [A,,A,]2 [F,,F,]2 | %54
 [C,,C,]4) ([F,,,F,,]4 | [D,,D,]6) ([E,,E,]2 | [C,,C,]2 [D,,D,]2 [^B,,,^B,,]2 [C,,C,]2 | %57
 ([A,,,A,,]4) [G,,,G,,]2 [F,,,F,,]2 | [G,,,G,,]4) [G,,,G,,]4 | G,,6 G,,>G,, | G,,6 G,,>G,, | %61
 G,,6 G,,>G,, | G,,6 G,,>G,, | G,,6 G,,>G,, | G,,6 G,,>G,, | G,,4 C,4 | %66
 G,,4 (3G,,C,G,, (3E,,G,,E,, | C,,4 [C,,G,,C,]4 | %68
"_Attacca subito il seguente:" !fermata![C,,G,,C,]8 |] %69
V:3
 x8 | x8 | x8 | x8 |[I:staff +1] (3E,G,C[I:staff -1] (3G,CE (3G,CE (3G,CE | %5
 (3G,DF (3G,DF (3G,DF (3G,DF | (3G,CE (3G,CE (3A,CF (3A,CF | (3G,B,E (3G,B,E (3A,B,D (3A,B,D | %8
 (3G,B,E (3G,B,E (3G,B,E (3G,B,E | (3=G,B,E (3G,B,E (3G,B,E (3G,B,E | %10
 (3=G,B,=F (3G,B,F (3G,B,F (3G,B,F | (3=G,=CE (3G,B,E (3G,^CE[I:staff +1] (3^F,^CE | %12
 (3F,B,=D (3F,B,D (3=G,B,C (3E,B,C | (3F,B,=D (3F,B,D (3F,^A,C (3F,A,C | %14
[I:staff -1] (3B,=DF (3B,DF (3B,^DF (3B,DF | (3B,E=G (3B,EG!mp!!>(! (3B,EG (3B,EG!>)! | %16
 (3B,^DF (3B,DF (3B,DF (3B,DF | (3B,E=G (3B,EG!mp!!>(! (3B,EG (3B,EG!>)! | %18
 (3B,DF (3B,DF (3B,=D^E (3B,DE | (3B,C^G (3B,CG (3=A,CF (3A,CF | %20
[I:staff +1] (3=G,B,=D (3G,B,D (3F,A,^D (3F,A,D | (3C,F,A, (3C,F,A, (3C,F,G, (3C,^E,G, | %22
 (3F,A,C (3A,C[I:staff -1]F (3CFA (3CFA | (3CGB (3CGB (3CGB (3CGB | (3CFA (3CFA (3^B,FA (3CFA | %25
 (3DFG (3DFG (3DFG (3DFG | (3EGc (3EGc (3DFA (3CE^A | x2 (3G^B,D (3AB,D (3FB,D | %28
 x2 (3G,^B,D (3A,B,D (3F,B,D | x2 (3cEG (3eEG (3cEG | x2[I:staff +1] (3CE,G, (3EE,G, (3CE,G, | x8 | %32
 x8 | x8 | x8 | x8 | x4[I:staff -1][K:bass] x2 C,2 | ^B,,4 D,2 C,2 | ^B,,4 (=D,2 C,2 | ^B,,4) x4 | %40
 x8 | (3E,G,C[K:treble] (3G,CE (3G,CE (3G,CE | (3G,DF (3G,DF (3G,DF (3G,DF | %43
 (3G,CE (3G,CE (3A,CF (3A,CF | (3G,B,E (3G,B,E (3A,B,D (3A,B,D | (3G,B,E (3B,EG (3B,EG (3B,EG | %46
 (3B,FA (3B,FA (3B,FA (3B,FA | (3B,EG (3B,EG (3^B,FG (3CEG | (3DFG (3DFG (3EGc (3EGc | %49
 (3=DFA (3DFA (3^B,FG (3B,FG | (3CEG (3CEG (3C^EG (3CEG | (3CFA (3CFA!mf!!>(! (3CFA (3CFA!>)! | %52
 (3C^EG (3CEG (3CEG (3CEG | (3CFA (3CFA!mp!!>(! (3CFA (3CFA!>)! | (3C^EG (3CEG (3CFA (3CFA | %55
 (3=B,FA (3B,FA (3B,FA (3B,EG | (3A,EG (3A,DF (3G,DF (3G,CE | %57
[I:staff +1] (3F,CD (3F,CD (3G,CD (3A,CD | (3G,CE (3G,CE (3F,^B,D (3F,B,D | %59
 (3E,G,C[I:staff -1] (3G,CE (3G,CE (3G,CE | x8 | x8 | (3^BdA (3BFA[K:bass] (3DFA,- (3A,G,F, | %63
 x2/3[K:treble] x22/3 | (3^BdA (3BFA[K:bass] (3DFA,- (3A,G,F, | x8 | x8 | x8 | x8 |] %69
V:4
 x8 | x8 | x8 | x8 | x8 | x8 | x8 | x8 | x8 | x8 | x8 | x8 | x8 | x8 | x8 | x8 | x8 | x8 | x8 | %19
 x8 | x8 | x8 | x8 | x8 | x8 | x8 | x8 | x8 | x8 | x8 | x8 | x8 | x8 | x8 | x8 | x8 | x8 | x8 | %38
 x8 | x8 | x8 | x8 | x8 | x8 | x8 | x8 | x8 | x8 | x8 | x8 | x8 | x8 | x8 | x8 | x8 | x8 | x8 | %57
 x8 | x8 | C,,8 | ^B,,,8 | C,,8 | G,,,8 | C,,8 | G,,,8 | C,,8- | C,,8 | x8 | x8 |] %69

